src/telerik-icons/solid/table-position-end.svg

<?xml version="1.0" encoding="utf-8"?>
<svg xmlns="http://www.w3.org/2000/svg" width="512" height="512" viewBox="0 0 512 512">
  <path d="M32 384h448v32H32v-32zm0 96h320v-32H32v32zM480 32v224H256V32h224zM352 160h-64v64h64v-64zm0-96h-64v64h64V64zm96 96h-64v64h64v-64zm0-96h-64v64h64V64zM32 352h448v-32H32v32z"/>
</svg>

<?xml version="1.0" encoding="utf-8"?>
<!-- Generator: Adobe Illustrator 25.0.0, SVG Export Plug-In . SVG Version: 6.00 Build 0)  -->
<svg xmlns="http://www.w3.org/2000/svg"
	 width="512px" height="512px" viewBox="0 0 512 512" enable-background="new 0 0 512 512">
<path d="M32,384h448v32H32V384z M32,480h320v-32H32V480z M480,32v224h-32H256V32H480z M352,160h-64v64h64V160z M352,64h-64v64h64V64
	z M448,160h-64v64h64V160z M448,64h-64v64h64V64z M32,352h448v-32H32V352z" />
</svg>
